priv/static/svgs/icons_new/sport-ski-jumping.svg

<svg width="32" height="32" viewBox="0 0 32 32" fill="none" xmlns="http://www.w3.org/2000/svg">
<path d="M25.0785 8.30216C23.8819 8.79643 22.5447 8.32245 22.0917 7.24351C21.6387 6.16456 22.2415 4.88922 23.438 4.39495C24.6345 3.90068 25.9717 4.37466 26.4247 5.4536C26.8777 6.53255 26.275 7.80789 25.0785 8.30216Z" stroke="black" stroke-linecap="round"/>
<path d="M21.2744 8.21343C20.376 7.4446 19.0649 7.37426 18.0846 8.042L11.6539 12.4199C11.1125 12.7883 10.9878 13.5284 11.3787 14.0494C11.7553 14.5508 12.4679 14.6604 12.9816 14.2961L18.2165 10.5825L17.4958 11.2038C13.5162 14.6349 10.3958 18.935 8.3826 23.7631L7.15386 26.71L10.2983 25.411L10.4314 25.1334C12.5061 20.8152 15.4866 16.9817 19.1736 13.8904L21.2511 12.1478C22.4772 11.1194 22.4885 9.25089 21.2744 8.21343V8.21343Z" stroke="black" stroke-linecap="round"/>
<path d="M29.1797 15.3188C27.6697 17.4373 25.5518 19.1099 23.0942 20.1251L2.82016 28.5" stroke="black" stroke-linecap="round"/>
</svg>

<svg width="32" height="32" viewBox="0 0 32 32" fill="none" xmlns="http://www.w3.org/2000/svg">
  <symbol id="item" viewBox="0 0 32 32" stroke-width="1" fill="none">
    <path d="M25.078 8.302c-1.196.494-2.533.02-2.986-1.058-.453-1.08.15-2.355 1.346-2.849 1.197-.494 2.534-.02 2.987 1.059.453 1.079-.15 2.354-1.347 2.848ZM21.274 8.213a2.634 2.634 0 0 0-3.19-.171l-6.43 4.378a1.14 1.14 0 0 0-.275 1.63c.376.5 1.089.61 1.603.246l5.235-3.713-.721.62a33.728 33.728 0 0 0-9.113 12.56l-1.23 2.947 3.145-1.299.133-.278a33.753 33.753 0 0 1 8.743-11.243l2.077-1.742a2.572 2.572 0 0 0 .023-3.935v0Z" stroke="currentColor" stroke-linecap="round"/><path d="M29.18 15.319c-1.51 2.118-3.628 3.79-6.086 4.806L2.82 28.5" stroke="currentColor" stroke-linecap="round"/>
  </symbol>
</svg>
